svg/aws-ec2-c6g.svg

<?xml version="1.0" encoding="UTF-8"?>
<svg xmlns="http://www.w3.org/2000/svg" xmlns:xlink="http://www.w3.org/1999/xlink" width="32" height="32" viewBox="0 0 32 32">
<path fill-rule="evenodd" fill="rgb(83.137255%, 35.686275%, 2.745098%)" fill-opacity="1" d="M 20.714844 14.875 C 20.898438 14.625 21.179688 14.5 21.558594 14.5 C 21.925781 14.5 22.269531 14.609375 22.59375 14.835938 L 22.59375 17.222656 C 22.296875 17.457031 21.929688 17.585938 21.550781 17.589844 C 20.808594 17.589844 20.4375 17.066406 20.4375 16.019531 C 20.4375 15.503906 20.53125 15.121094 20.714844 14.875 M 21.222656 18.4375 C 21.730469 18.441406 22.21875 18.253906 22.59375 17.914062 L 22.59375 18.316406 C 22.59375 18.800781 22.488281 19.152344 22.277344 19.367188 C 22.066406 19.582031 21.726562 19.6875 21.257812 19.6875 C 20.800781 19.6875 20.28125 19.589844 19.699219 19.398438 L 19.699219 20.183594 C 20.207031 20.4375 20.765625 20.566406 21.332031 20.566406 C 22.089844 20.566406 22.671875 20.359375 23.082031 19.949219 C 23.492188 19.539062 23.695312 18.957031 23.695312 18.203125 L 23.695312 13.78125 L 22.761719 13.78125 L 22.667969 14.210938 C 22.292969 13.839844 21.785156 13.636719 21.257812 13.640625 C 20.863281 13.640625 20.515625 13.742188 20.222656 13.949219 C 19.921875 14.164062 19.6875 14.460938 19.550781 14.804688 C 19.386719 15.203125 19.304688 15.628906 19.316406 16.058594 C 19.316406 16.78125 19.492188 17.359375 19.835938 17.789062 C 20.179688 18.222656 20.644531 18.4375 21.222656 18.4375 M 16.21875 15.46875 C 16.589844 15.46875 16.871094 15.566406 17.066406 15.765625 C 17.261719 15.960938 17.359375 16.246094 17.359375 16.617188 C 17.359375 16.984375 17.261719 17.269531 17.074219 17.476562 C 16.886719 17.683594 16.625 17.785156 16.289062 17.785156 C 15.472656 17.785156 15.039062 17.121094 14.996094 15.796875 C 15.410156 15.578125 15.816406 15.46875 16.21875 15.46875 M 16.210938 18.671875 C 16.671875 18.671875 17.074219 18.582031 17.417969 18.394531 C 17.765625 18.214844 18.027344 17.960938 18.210938 17.640625 C 18.394531 17.320312 18.488281 16.953125 18.488281 16.542969 C 18.488281 15.960938 18.3125 15.492188 17.960938 15.136719 C 17.609375 14.785156 17.144531 14.609375 16.566406 14.609375 C 16.011719 14.609375 15.488281 14.769531 14.996094 15.085938 C 15.027344 14.308594 15.179688 13.734375 15.457031 13.359375 C 15.734375 12.988281 16.152344 12.800781 16.710938 12.800781 C 16.921875 12.800781 17.148438 12.824219 17.398438 12.871094 C 17.648438 12.917969 17.867188 12.976562 18.058594 13.054688 L 18.058594 12.242188 C 17.839844 12.132812 17.605469 12.050781 17.363281 12.003906 C 17.097656 11.945312 16.828125 11.914062 16.554688 11.914062 C 15.703125 11.914062 15.042969 12.230469 14.570312 12.867188 C 14.101562 13.5 13.867188 14.390625 13.867188 15.535156 C 13.867188 16.570312 14.066406 17.351562 14.460938 17.878906 C 14.855469 18.40625 15.4375 18.671875 16.210938 18.671875 M 9.09375 17.824219 C 8.566406 17.273438 8.304688 16.464844 8.304688 15.394531 C 8.304688 14.292969 8.578125 13.445312 9.121094 12.851562 C 9.667969 12.257812 10.449219 11.960938 11.46875 11.960938 C 12.027344 11.960938 12.542969 12.046875 13.019531 12.214844 L 13.019531 13.144531 C 12.398438 13.015625 11.910156 12.949219 11.558594 12.949219 C 10.851562 12.949219 10.324219 13.132812 9.980469 13.5 C 9.636719 13.867188 9.460938 14.433594 9.460938 15.199219 L 9.460938 15.421875 C 9.460938 16.183594 9.632812 16.746094 9.976562 17.109375 C 10.316406 17.472656 10.839844 17.65625 11.539062 17.65625 C 11.933594 17.65625 12.460938 17.578125 13.113281 17.421875 L 13.113281 18.355469 C 12.621094 18.546875 12.058594 18.644531 11.429688 18.644531 C 10.398438 18.644531 9.617188 18.367188 9.09375 17.824219 M 6 26 L 26 26 L 26 6 L 6 6 Z M 30.667969 8.667969 L 30.667969 7.332031 L 27.332031 7.332031 L 27.332031 5.332031 C 27.332031 4.964844 27.035156 4.667969 26.667969 4.667969 L 24.667969 4.667969 L 24.667969 1.332031 L 23.332031 1.332031 L 23.332031 4.667969 L 20.667969 4.667969 L 20.667969 1.332031 L 19.332031 1.332031 L 19.332031 4.667969 L 16.667969 4.667969 L 16.667969 1.332031 L 15.332031 1.332031 L 15.332031 4.667969 L 12.667969 4.667969 L 12.667969 1.332031 L 11.332031 1.332031 L 11.332031 4.667969 L 8.667969 4.667969 L 8.667969 1.332031 L 7.332031 1.332031 L 7.332031 4.667969 L 5.332031 4.667969 C 4.964844 4.667969 4.667969 4.964844 4.667969 5.332031 L 4.667969 7.332031 L 1.332031 7.332031 L 1.332031 8.667969 L 4.667969 8.667969 L 4.667969 11.332031 L 1.332031 11.332031 L 1.332031 12.667969 L 4.667969 12.667969 L 4.667969 15.332031 L 1.332031 15.332031 L 1.332031 16.667969 L 4.667969 16.667969 L 4.667969 19.332031 L 1.332031 19.332031 L 1.332031 20.667969 L 4.667969 20.667969 L 4.667969 23.332031 L 1.332031 23.332031 L 1.332031 24.667969 L 4.667969 24.667969 L 4.667969 26.667969 C 4.667969 27.035156 4.964844 27.332031 5.332031 27.332031 L 7.332031 27.332031 L 7.332031 30.667969 L 8.667969 30.667969 L 8.667969 27.332031 L 11.332031 27.332031 L 11.332031 30.667969 L 12.667969 30.667969 L 12.667969 27.332031 L 15.332031 27.332031 L 15.332031 30.667969 L 16.667969 30.667969 L 16.667969 27.332031 L 19.332031 27.332031 L 19.332031 30.667969 L 20.667969 30.667969 L 20.667969 27.332031 L 23.332031 27.332031 L 23.332031 30.667969 L 24.667969 30.667969 L 24.667969 27.332031 L 26.667969 27.332031 C 27.035156 27.332031 27.332031 27.035156 27.332031 26.667969 L 27.332031 24.667969 L 30.667969 24.667969 L 30.667969 23.332031 L 27.332031 23.332031 L 27.332031 20.667969 L 30.667969 20.667969 L 30.667969 19.332031 L 27.332031 19.332031 L 27.332031 16.667969 L 30.667969 16.667969 L 30.667969 15.332031 L 27.332031 15.332031 L 27.332031 12.667969 L 30.667969 12.667969 L 30.667969 11.332031 L 27.332031 11.332031 L 27.332031 8.667969 Z M 30.667969 8.667969 "/>
</svg>

<svg role="img" viewBox="0 0 32 32" height="32" width="32" xmlns="http://www.w3.org/2000/svg"><path d="M20.715 14.875c.183-.25.465-.375.844-.375.367 0 .71.11 1.035.336v2.387a1.712 1.712 0 0 1-1.043.367c-.742 0-1.113-.524-1.113-1.57 0-.516.093-.899.277-1.145m.508 3.563c.507.003.996-.184 1.37-.524v.402c0 .485-.105.836-.316 1.051-.21.215-.55.32-1.02.32-.456 0-.976-.097-1.558-.289v.786a3.647 3.647 0 0 0 1.633.382c.758 0 1.34-.207 1.75-.617.41-.41.613-.992.613-1.746v-4.422h-.933l-.094.43a1.981 1.981 0 0 0-1.41-.57 1.75 1.75 0 0 0-1.035.308 1.93 1.93 0 0 0-.672.856 3.072 3.072 0 0 0-.235 1.254c0 .722.176 1.3.52 1.73.344.434.809.648 1.387.648m-5.004-2.968c.37 0 .652.097.847.297.196.195.293.48.293.851 0 .367-.097.653-.285.86-.187.207-.449.308-.785.308-.816 0-1.25-.664-1.293-1.988.414-.219.82-.328 1.223-.328m-.008 3.203c.46 0 .863-.09 1.207-.277.348-.18.61-.434.793-.754.184-.32.277-.688.277-1.098 0-.582-.175-1.05-.527-1.406-.352-.352-.816-.528-1.395-.528-.554 0-1.078.16-1.57.477.031-.777.184-1.352.461-1.727.277-.37.695-.558 1.254-.558.21 0 .437.023.687.07.25.047.47.106.66.184v-.813a2.711 2.711 0 0 0-.695-.238 3.744 3.744 0 0 0-.808-.09c-.852 0-1.512.316-1.985.953-.468.633-.703 1.524-.703 2.668 0 1.035.2 1.817.594 2.344.394.527.976.793 1.75.793m-7.117-.848c-.528-.55-.79-1.36-.79-2.43 0-1.101.274-1.949.817-2.542.547-.594 1.328-.891 2.348-.891.558 0 1.074.086 1.55.254v.93c-.62-.13-1.109-.196-1.46-.196-.707 0-1.235.184-1.579.551-.343.367-.52.934-.52 1.7v.222c0 .762.173 1.324.517 1.687.34.364.863.547 1.562.547.395 0 .922-.078 1.574-.234v.933c-.492.192-1.054.29-1.683.29-1.032 0-1.813-.278-2.336-.82M6 26h20V6H6ZM30.668 8.668V7.332h-3.336v-2a.664.664 0 0 0-.664-.664h-2V1.332h-1.336v3.336h-2.664V1.332h-1.336v3.336h-2.664V1.332h-1.336v3.336h-2.664V1.332h-1.336v3.336H8.668V1.332H7.332v3.336h-2a.664.664 0 0 0-.664.664v2H1.332v1.336h3.336v2.664H1.332v1.336h3.336v2.664H1.332v1.336h3.336v2.664H1.332v1.336h3.336v2.664H1.332v1.336h3.336v2c0 .367.297.664.664.664h2v3.336h1.336v-3.336h2.664v3.336h1.336v-3.336h2.664v3.336h1.336v-3.336h2.664v3.336h1.336v-3.336h2.664v3.336h1.336v-3.336h2a.664.664 0 0 0 .664-.664v-2h3.336v-1.336h-3.336v-2.664h3.336v-1.336h-3.336v-2.664h3.336v-1.336h-3.336v-2.664h3.336v-1.336h-3.336V8.668Zm0 0" fill="rgb(83.137255%, 35.686275%, 2.745098%)" fill-rule="evenodd"/></svg>
